X:1
Q:1/4=90
L:1/8
M:1/16
K:C clef=F4
V:1
%%MIDI program 60
^A,3/8|^A,/2-|^A,/2-|^A,7/8|
z15/32|^A,15/16|z/2|z/2|
z15/32|^A,/2-|^A,/2-|^A,/2-|
^A,/2-|^A,7/8|z15/32|D15/16|
z15/32|^D/2-|^D/2-|^D7/8|
z15/32|D/2-|D/2-|D7/8|
z15/32|F/2-|F/2-|F7/8|
z15/32|^D/2-|^D/2-|^D7/8|
z15/32|^G,/2-|^G,/2-|^G,7/8|
z15/32|G,/2-|G,/2-|G,7/8|
z15/32|^D15/16|z15/32|F15/16|
z15/32|G/2-|G/2-|G7/8|
z15/32|C15/16|z15/32|D15/16|
z15/32|^D/2-|^D/2-|^D7/8|
z15/32|C/2-|C/2-|C7/8|
z15/32|C/2-|C/2-|C7/8|
z15/32|D/2-|D/2-|D/2-|
D/2-|D/2-|D/2-|D3/4|
z15/32|^A,/2-|^A,/2-|^A,/2-|
^A,/2-|^A,7/8|z15/32|D15/16|
z15/32|^D/2-|^D/2-|^D7/8|
z15/32|D/2-|D/2-|D7/8|
z15/32|F/2-|F/2-|F7/8|
z15/32|^D/2-|^D/2-|^D7/8|
z15/32|^G,/2-|^G,/2-|^G,7/8|
z15/32|G,/2-|G,/2-|G,7/8|
z15/32|^D15/16|z15/32|F15/16|
z15/32|G/2-|G/2-|G7/8|
z15/32|C15/16|z15/32|D15/16|
z15/32|^D/2-|^D/2-|^D7/8|
z15/32|^D/2-|^D/2-|^D7/8|
z15/32|C/2-|C/2-|C7/8|
z15/32|F/2-|F/2-|F/2-|
F/2-|F/2-|F/2-|F3/4|
z15/32|D/2-|D/2-|D/2-|
D/2-|D7/8|z15/32|^D15/16|
z15/32|^A,/2-|^A,/2-|^A,7/8|
z15/32|^A,/2-|^A,/2-|^A,7/8|
z15/32|F/2-|F/2-|F7/8|
z15/32|^D/2-|^D/2-|^D7/8|
z15/32|^A,/2-|^A,/2-|^A,7/8|
z15/32|^A,/2-|^A,/2-|^A,7/8|
z15/32|^D/2-|^D/2-|^D7/8|
z15/32|C15/16|z15/32|D15/16|
z15/32|^D/2-|^D/2-|^D/2-|
^D/2-|^D7/8|z15/32|^D15/16|
z15/32|C/2-|C/2-|C7/8|
z15/32|^D15/16|z15/32|F15/16|
z15/32|F/2-|F/2-|F/2-|
F/2-|F/2-|F/2-|F3/4|
z15/32|^A/2-|^A/2-|^A/2-|
^A/2-|^A7/8|z15/32|^A15/16|
z15/32|^G/2-|^G/2-|^G7/8|
z15/32|G/2-|G/2-|G7/8|
z15/32|^G/2-|^G/2-|^G/2-|
^G/2-|^G7/8|z15/32|G15/16|
z15/32|F/2-|F/2-|F7/8|
z15/32|^D/2-|^D/2-|^D7/8|
z15/32|D/2-|D/2-|D/2-|
D/2-|D7/8|z15/32|G7/16|
^G7/16|^D/2-|^D/2-|^D7/8|
z15/32|C/2-|C/2-|C7/8|
z15/32|^A,/2-|^A,/2-|^A,7/8|
z15/32|D/2-|D/2-|D7/8|
z15/32|^A,/2-|^A,/2-|^A,/2-|
^A,/2-|^A,/2-|^A,/2-|^A,3/4|
z15/32|^A/2-|^A/2-|^A/2-|
^A/2-|^A7/8|z15/32|^A15/16|
z15/32|^G/2-|^G/2-|^G7/8|
z15/32|G/2-|G/2-|G7/8|
z15/32|^G/2-|^G/2-|^G/2-|
^G/2-|^G7/8|z15/32|G15/16|
z15/32|F/2-|F/2-|F7/8|
z15/32|^D/2-|^D/2-|^D7/8|
z15/32|D/2-|D/2-|D/2-|
D/2-|D7/8|z15/32|G7/16|
^G7/16|^D/2-|^D/2-|^D7/8|
z15/32|C/2-|C/2-|C7/8|
z15/32|^A,/2-|^A,/2-|^A,7/8|
z15/32|D/2-|D/2-|D7/8|
z15/32|G,/2-|G,/2-|G,/2-|
G,/2-|G,/2-|G,/2-|G,3/4|
z/4
L:1/8
M:1/16
K:C clef=F4
V:2
%%MIDI program 60
(5:4G,/2|G,/2-|G,/2-|G,7/8|
z15/32|G,15/16|z/2|z/2|
z/2|z/2|z/2|z/2|
z/2|z/2|z/2|z/2|
z/2|z/2|z/2|z/2|
z/2|z/2|z/2|z/2|
z/2|z/2|z/2|z/2|
z/2|z/2|z/2|z/2|
z/2|z/2|z/2|z/2|
z/2|z/2|z/2|z/2|
z/2|z/2|z/2|z/2|
z/2|z/2|z/2|z/2|
z/2|z/2|z/2|z/2|
z/2|z/2|z/2|z/2|
z/2|z/2|z/2|z/2|
z/2|z/2|z/2|z/2|
z/2|z/2|z/2|z/2|
z/2|z/2|z/2|z/2|
z/2|z/2|z/2|z/2|
z/2|z/2|z/2|z/2|
z/2|z/2|z/2|z/2|
z/2|z/2|z/2|z/2|
z/2|z/2|z/2|z/2|
z/2|z/2|z/2|z/2|
z/2|z/2|z/2|z/2|
z/2|z/2|z/2|z/2|
z/2|z/2|z/2|z/2|
z/2|z/2|z/2|z/2|
z/2|z/2|z/2|z/2|
z/2|z/2|z/2|z/2|
z/2|z/2|z/2|z/2|
z/2|z/2|z/2|z/2|
z/2|z/2|z/2|z/2|
z/2|z/2|z/2|z/2|
z/2|z/2|z/2|z/2|
z/2|z/2|z/2|z/2|
z/2|z/2|z/2|z/2|
z/2|z/2|z/2|z/2|
z/2|z/2|z/2|z/2|
z/2|z/2|z/2|z/2|
z/2|z/2|z/2|z/2|
z/2|z/2|z/2|z/2|
z/2|z/2|z/2|z/2|
z/2|z/2|z/2|z/2|
z/2|z/2|z/2|z/2|
z/2|z/2|z/2|z/2|
z/2|z/2|z/2|z/2|
z/2|z/2|z/2|z/2|
z/2|z/2|z/2|z/2|
z/2|z/2|z/2|z/2|
z/2|z/2|z/2|z/2|
z/2|z/2|z/2|z/2|
z/2|z/2|z/2|z/2|
z/2|z/2|z/2|z/2|
z/2|z/2|z/2|z/2|
z/2|z/2|z/2|z/2|
z/2|z/2|z/2|z/2|
z/2|z/2|z/2|z/2|
z/2|z/2|z/2|z/2|
z/2|z/2|z/2|z/2|
z/2|z/2|z/2|z/2|
z/2|z/2|z/2|z/2|
z/2|z/2|z/2|z/2|
z/2|z/2|z/2|z/2|
z/2|z/2|z/2|z/2|
z/2|z/2|z/2|z/2|
z/2|z/2|z/2|z/2|
z/2|z/2|z/2|z/2|
z/2|z/2|z/2|z/2|
z/2|z/2|z/2|z/2|
z/2|z/2|z/2|z/2|
z/2|z/2|z/2|z/2|
z/2|z/2|z/2|z/2|
z/2|z/2|z/2|z/2|
z/2|z/2|z/2|z/2|
z/2|z/2|z/2|z/2|
z/2|z/2|z/2|z/2|
z/2|z/2|z/2|z/2|
z/2|z/2|z/2|z/2|
z/2|z/2|z/2|z/2|
z/2|z/2|z/2|z/2|
z/2|z/2|z/2|z/2|
z/4
L:1/8
M:1/16
K:C clef=G2
V:3
%%MIDI program 56
z/2|z/2|z/2|z/2|
z/2|z/2|z/2|z/2|
z15/32|^D/2-|^D/2-|^D/2-|
^D/2-|^D7/8|z15/32|F15/16|
z15/32|G/2-|G/2-|G7/8|
z15/32|F/2-|F/2-|F7/8|
z15/32|^G/2-|^G/2-|^G7/8|
z15/32|G/2-|G/2-|G7/8|
z15/32|F15/16|z15/32|D15/16|
z15/32|^D/2-|^D/2-|^D7/8|
z15/32|c/2-|c/2-|c7/8|
z15/32|^A/2-|^A/2-|^A7/8|
z15/32|^G/2-|^G/2-|^G7/8|
z15/32|G/2-|G/2-|G7/8|
z15/32|F/2-|F/2-|F7/8|
z15/32|G15/16|z15/32|^D15/16|
z15/32|^A/2-|^A/2-|^A/2-|
^A/2-|^A/2-|^A/2-|^A3/4|
z15/32|^D/2-|^D/2-|^D/2-|
^D/2-|^D7/8|z15/32|F15/16|
z15/32|G/2-|G/2-|G7/8|
z15/32|F/2-|F/2-|F7/8|
z15/32|^G/2-|^G/2-|^G7/8|
z15/32|G/2-|G/2-|G7/8|
z15/32|F15/16|z15/32|D15/16|
z15/32|^D/2-|^D/2-|^D7/8|
z15/32|c/2-|c/2-|c7/8|
z15/32|^A/2-|^A/2-|^A7/8|
z15/32|^G/2-|^G/2-|^G7/8|
z15/32|G/2-|G/2-|G7/8|
z15/32|F/2-|F/2-|F7/8|
z15/32|G15/16|z15/32|^D15/16|
z15/32|^A/2-|^A/2-|^A/2-|
^A/2-|^A/2-|^A/2-|^A3/4|
z15/32|F/2-|F/2-|F/2-|
F/2-|F7/8|z15/32|G15/16|
z15/32|F15/16|z15/32|D15/16|
z15/32|^A,/2-|^A,/2-|^A,7/8|
z15/32|^G/2-|^G/2-|^G7/8|
z15/32|G/2-|G/2-|G7/8|
z15/32|F15/16|z15/32|D15/16|
z15/32|^A,/2-|^A,/2-|^A,7/8|
z15/32|^A/2-|^A/2-|^A7/8|
z15/32|^G/2-|^G/2-|^G7/8|
z15/32|G/2-|G/2-|G/2-|
G/2-|G7/8|z15/32|G15/16|
z15/32|A/2-|A/2-|A7/8|
z15/32|A15/16|z15/32|^A15/16|
z15/32|^A/2-|^A/2-|^A/2-|
^A/2-|^A/2-|^A/2-|^A3/4|
z15/32|^d/2-|^d/2-|^d/2-|
^d/2-|^d7/8|z15/32|d15/16|
z15/32|d15/16|z15/32|c15/16|
z15/32|^A/2-|^A/2-|^A7/8|
z15/32|c/2-|c/2-|c/2-|
c/2-|c7/8|z15/32|^A15/16|
z15/32|^A15/16|z15/32|^G15/16|
z15/32|G/2-|G/2-|G7/8|
z15/32|F/2-|F/2-|F/2-|
F/2-|F7/8|z15/32|G7/16|
^G7/16|^A15/16|z15/32|c15/16|
z15/32|^G15/16|z15/32|F15/16|
z15/32|^D/2-|^D/2-|^D7/8|
z15/32|G15/16|z15/32|F15/16|
z15/32|^D/2-|^D/2-|^D/2-|
^D/2-|^D/2-|^D/2-|^D3/4|
z15/32|^d/2-|^d/2-|^d/2-|
^d/2-|^d7/8|z15/32|d15/16|
z15/32|d15/16|z15/32|c15/16|
z15/32|^A/2-|^A/2-|^A7/8|
z15/32|c/2-|c/2-|c/2-|
c/2-|c7/8|z15/32|^A15/16|
z15/32|^A15/16|z15/32|^G15/16|
z15/32|G/2-|G/2-|G7/8|
z15/32|F/2-|F/2-|F/2-|
F/2-|F7/8|z15/32|G7/16|
^G7/16|^A15/16|z15/32|c15/16|
z15/32|^G15/16|z15/32|F15/16|
z15/32|^D/2-|^D/2-|^D7/8|
z15/32|G15/16|z15/32|F15/16|
z15/32|^D/2-|^D/2-|^D/2-|
^D/2-|^D/2-|^D/2-|^D3/4|
z/4
L:1/8
M:1/16
K:C clef=F4
V:4
%%MIDI program 48
^D,3/8|^D,/2-|^D,/2-|^D,7/8|
z15/32|^D,15/16|z/2|z/2|
z15/32|^D,/2-|^D,/2-|^D,/2-|
^D,/2-|^D,7/8|z15/32|^A,,15/16|
z15/32|^D,/2-|^D,/2-|^D,7/8|
z15/32|^A,,/2-|^A,,/2-|^A,,7/8|
z15/32|D,/2-|D,/2-|D,7/8|
z15/32|^D,/2-|^D,/2-|^D,7/8|
z15/32|^A,,/2-|^A,,/2-|^A,,7/8|
z15/32|^D,/2-|^D,/2-|^D,7/8|
z15/32|^G,,/2-|^G,,/2-|^G,,7/8|
z15/32|^D,/2-|^D,/2-|^D,7/8|
z15/32|F,/2-|F,/2-|F,7/8|
z15/32|^D,/2-|^D,/2-|^D,7/8|
z15/32|^G,,/2-|^G,,/2-|^G,,7/8|
z15/32|A,,/2-|A,,/2-|A,,7/8|
z15/32|^A,,/2-|^A,,/2-|^A,,/2-|
^A,,/2-|^A,,/2-|^A,,/2-|^A,,3/4|
z15/32|^D,/2-|^D,/2-|^D,/2-|
^D,/2-|^D,7/8|z15/32|^A,,15/16|
z15/32|^D,/2-|^D,/2-|^D,7/8|
z15/32|^A,,/2-|^A,,/2-|^A,,7/8|
z15/32|D,/2-|D,/2-|D,7/8|
z15/32|^D,/2-|^D,/2-|^D,7/8|
z15/32|^A,,/2-|^A,,/2-|^A,,7/8|
z15/32|^D,/2-|^D,/2-|^D,7/8|
z15/32|^G,,/2-|^G,,/2-|^G,,7/8|
z15/32|^D,/2-|^D,/2-|^D,7/8|
z15/32|F,/2-|F,/2-|F,7/8|
z15/32|^D,/2-|^D,/2-|^D,7/8|
z15/32|^G,,/2-|^G,,/2-|^G,,7/8|
z15/32|A,,/2-|A,,/2-|A,,7/8|
z15/32|^A,,/2-|^A,,/2-|^A,,/2-|
^A,,/2-|^A,,/2-|^A,,/2-|^A,,3/4|
z15/32|^A,,/2-|^A,,/2-|^A,,/2-|
^A,,/2-|^A,,7/8|z15/32|^D,15/16|
z15/32|^A,,/2-|^A,,/2-|^A,,/2-|
^A,,/2-|^A,,/2-|^A,,/2-|^A,,3/4|
z15/32|D,/2-|D,/2-|D,7/8|
z15/32|^D,/2-|^D,/2-|^D,7/8|
z15/32|^A,,/2-|^A,,/2-|^A,,/2-|
^A,,/2-|^A,,/2-|^A,,/2-|^A,,3/4|
z15/32|G,,/2-|G,,/2-|G,,7/8|
z15/32|^G,,15/16|z15/32|^A,,15/16|
z15/32|C,/2-|C,/2-|C,/2-|
C,/2-|C,/2-|C,/2-|C,3/4|
z15/32|F,,/2-|F,,/2-|F,,/2-|
F,,/2-|F,,/2-|F,,/2-|F,,3/4|
z15/32|^A,,/2-|^A,,/2-|^A,,/2-|
^A,,/2-|^A,,/2-|^A,,/2-|^A,,3/4|
z15/32|G,,/2-|G,,/2-|G,,7/8|
z15/32|^A,/2-|^A,/2-|^A,7/8|
z15/32|^G,/2-|^G,/2-|^G,7/8|
z15/32|^D/2-|^D/2-|^D7/8|
z15/32|^G,,/2-|^G,,/2-|^G,,/2-|
^G,,/2-|^G,,7/8|z15/32|^D,15/16|
z15/32|^A,,/2-|^A,,/2-|^A,,7/8|
z15/32|^D,/2-|^D,/2-|^D,7/8|
z15/32|^G,,/2-|^G,,/2-|^G,,/2-|
^G,,/2-|^G,,/2-|^G,,/2-|^G,,3/4|
z15/32|G,,/2-|G,,/2-|G,,7/8|
z15/32|^G,,/2-|^G,,/2-|^G,,7/8|
z15/32|^A,,/2-|^A,,/2-|^A,,7/8|
z15/32|^A,,/2-|^A,,/2-|^A,,7/8|
z15/32|^D,/2-|^D,/2-|^D,/2-|
^D,/2-|^D,/2-|^D,/2-|^D,3/4|
z15/32|G,,/2-|G,,/2-|G,,7/8|
z15/32|^A,/2-|^A,/2-|^A,7/8|
z15/32|^G,/2-|^G,/2-|^G,7/8|
z15/32|^D/2-|^D/2-|^D7/8|
z15/32|^G,,/2-|^G,,/2-|^G,,/2-|
^G,,/2-|^G,,7/8|z15/32|^D,15/16|
z15/32|^A,,/2-|^A,,/2-|^A,,7/8|
z15/32|^D,/2-|^D,/2-|^D,7/8|
z15/32|^G,,/2-|^G,,/2-|^G,,/2-|
^G,,/2-|^G,,/2-|^G,,/2-|^G,,3/4|
z15/32|G,,/2-|G,,/2-|G,,7/8|
z15/32|^G,,/2-|^G,,/2-|^G,,7/8|
z15/32|^A,,/2-|^A,,/2-|^A,,7/8|
z15/32|^A,,/2-|^A,,/2-|^A,,7/8|
z15/32|^D,/2-|^D,/2-|^D,/2-|
^D,/2-|^D,/2-|^D,/2-|^D,3/4|
z/4
L:1/8
M:1/16
K:C clef=G2
V:5
%%MIDI program 60
^D3/8|^D/2-|^D/2-|^D7/8|
z15/32|^D15/16|z/2|z/2|
z15/32|[^D-G,-]/2|[^D-G,-]/2|[^D-G,-]/2|
[^D-G,-]/2|[^DG,]7/8|z15/32|[F^A,]15/16|
z15/32|[G-^A,-]/2|[G-^A,-]/2|[G^A,]7/8|
z15/32|[F-^A,-]/2|[F-^A,-]/2|[F^A,]7/8|
z15/32|[^G-^A,-]/2|[^G-^A,-]/2|[^G^A,]7/8|
z15/32|[G-^A,-]/2|[G-^A,-]/2|[G^A,]7/8|
z15/32|[^A,F]15/16|z7/16|[D^A,]7/8|
z3/8|[^D-^A,-]/2|[^D-^A,-]/2|[^D^A,]7/8|
z15/32|c/2-|c/2-|c7/8|
z15/32|[^A-^D-]/2|[^A-^D-]/2|[^A^D]7/8|
z15/32|^G/2-|^G/2-|^G7/8|
z15/32|G/2-|G/2-|G7/8|
z15/32|[F-^D-]/2|[F-^D-]/2|[F^D]7/8|
z15/32|G15/16|z15/32|^D15/16|
z15/32|[^A-F-]/2|[^A-F-]/2|[^A-F-]/2|
[^A-F-]/2|[^A-F-]/2|[^A-F-]/2|[^AF]3/4|
z15/32|[^D-G,-]/2|[^D-G,-]/2|[^D-G,-]/2|
[^D-G,-]/2|[^DG,]7/8|z15/32|[F^A,]15/16|
z15/32|[G-^A,-]/2|[G-^A,-]/2|[G^A,]7/8|
z15/32|[F-^A,-]/2|[F-^A,-]/2|[F^A,]7/8|
z15/32|[^G-^A,-]/2|[^G-^A,-]/2|[^G^A,]7/8|
z15/32|[G-^A,-]/2|[G-^A,-]/2|[G^A,]7/8|
z15/32|[^A,F]15/16|z7/16|[D^A,]7/8|
z3/8|[^D-^A,-]/2|[^D-^A,-]/2|[^D^A,]7/8|
z15/32|c/2-|c/2-|c7/8|
z15/32|[^A-^D-]/2|[^A-^D-]/2|[^A^D]7/8|
z15/32|^G/2-|^G/2-|^G7/8|
z15/32|G/2-|G/2-|G7/8|
z15/32|[F-C-]/2|[F-C-]/2|[FC]7/8|
z15/32|G15/16|z15/32|^D15/16|
z15/32|[^A-D-]/2|[^A-D-]/2|[^A-D-]/2|
[^A-D-]/2|[^A-D-]/2|[^A-D-]/2|[^AD]3/4|
z15/32|[F-^A,-]/2|[F-^A,-]/2|[F-^A,-]/2|
[F-^A,-]/2|[F^A,]7/8|z15/32|[G^A,]15/16|
z15/32|F15/16|z15/32|D15/16|
z15/32|^A,/2-|^A,/2-|^A,7/8|
z15/32|[^G-^A,-]/2|[^G-^A,-]/2|[^G^A,]7/8|
z15/32|[G-^A,-]/2|[G-^A,-]/2|[G^A,]7/8|
z15/32|F15/16|z15/32|D15/16|
z15/32|^A,/2-|^A,/2-|^A,7/8|
z15/32|[^A-^A,-]/2|[^A-^A,-]/2|[^A^A,]7/8|
z15/32|^G/2-|^G/2-|^G7/8|
z15/32|[G-C-]/2|[G-C-]/2|[G-C-]/2|
[G-C-]/2|[GC]7/8|z15/32|G15/16|
z15/32|[A-^D-]/2|[A-^D-]/2|[A^D]7/8|
z15/32|[AC]15/16|z15/32|[^AD]15/16|
z15/32|[^A-D-]/2|[^A-D-]/2|[^A-D-]/2|
[^A-D-]/2|[^A-D-]/2|[^A-D-]/2|[^AD]3/4|
z15/32|[^d-^D-]/2|[^d-^D-]/2|[^d-^D-]/2|
[^d-^D-]/2|[^d^D]7/8|z15/32|d15/16|
z15/32|[^Dd]15/16|z7/16|[c^D]7/8|
z3/8|^A/2-|^A/2-|^A7/8|
z15/32|[c-^D-]/2|[c-^D-]/2|[c-^D-]/2|
[c-^D-]/2|[c^D]7/8|z15/32|[^A^D]15/16|
z15/32|[D^A]15/16|z7/16|[^GD]7/8|
z3/8|G/2-|G/2-|G7/8|
z15/32|[F-^A,-]/2|[F-^A,-]/2|[F-^A,-]/2|
[F-^A,-]/2|[F^A,]7/8|z15/32|G7/16|
^G7/16|^A15/16|z15/32|c15/16|
z15/32|^G15/16|z15/32|F15/16|
z15/32|[^D-G,-]/2|[^D-G,-]/2|[^DG,]7/8|
z15/32|[^G,G]15/16|z7/16|[F^G,]7/8|
z3/8|[^D-G,-]/2|[^D-G,-]/2|[^D-G,-]/2|
[^D-G,-]/2|[^D-G,-]/2|[^D-G,-]/2|[^DG,]3/4|
z15/32|[^d-^D-]/2|[^d-^D-]/2|[^d-^D-]/2|
[^d-^D-]/2|[^d^D]7/8|z15/32|d15/16|
z15/32|[^Dd]15/16|z7/16|[c^D]7/8|
z3/8|^A/2-|^A/2-|^A7/8|
z15/32|[c-^D-]/2|[c-^D-]/2|[c-^D-]/2|
[c-^D-]/2|[c^D]7/8|z15/32|[^A^D]15/16|
z15/32|[D^A]15/16|z7/16|[^GD]7/8|
z3/8|G/2-|G/2-|G7/8|
z15/32|[F-^A,-]/2|[F-^A,-]/2|[F-^A,-]/2|
[F-^A,-]/2|[F^A,]7/8|z15/32|G7/16|
^G7/16|^A15/16|z15/32|c15/16|
z15/32|^G15/16|z15/32|F15/16|
z15/32|[^D-G,-]/2|[^D-G,-]/2|[^DG,]7/8|
z15/32|[^G,G]15/16|z7/16|[F^G,]7/8|
z3/8|[^D-^A,-]/2|[^D-^A,-]/2|[^D-^A,-]/2|
[^D-^A,-]/2|[^D-^A,-]/2|[^D-^A,-]/2|[^D^A,]3/4|
z/4
L:1/8
M:1/16
K:C clef=F4
V:6
%%MIDI program 63
^D,,3/8|^D,,/2-|^D,,/2-|^D,,7/8|
z15/32|^D,,15/16|z/2|z/2|
z15/32|^D,,/2-|^D,,/2-|^D,,/2-|
^D,,/2-|^D,,7/8|z15/32|^A,,,15/16|
z15/32|^D,,/2-|^D,,/2-|^D,,7/8|
z15/32|^A,,,/2-|^A,,,/2-|^A,,,7/8|
z15/32|D,,/2-|D,,/2-|D,,7/8|
z15/32|^D,,/2-|^D,,/2-|^D,,7/8|
z15/32|^A,,,/2-|^A,,,/2-|^A,,,7/8|
z15/32|^D,,/2-|^D,,/2-|^D,,7/8|
z15/32|^G,,,/2-|^G,,,/2-|^G,,,7/8|
z15/32|^D,,/2-|^D,,/2-|^D,,7/8|
z15/32|F,,/2-|F,,/2-|F,,7/8|
z15/32|^D,,/2-|^D,,/2-|^D,,7/8|
z15/32|^G,,,/2-|^G,,,/2-|^G,,,7/8|
z15/32|A,,,/2-|A,,,/2-|A,,,7/8|
z15/32|^A,,,/2-|^A,,,/2-|^A,,,/2-|
^A,,,/2-|^A,,,/2-|^A,,,/2-|^A,,,3/4|
z15/32|^D,,/2-|^D,,/2-|^D,,/2-|
^D,,/2-|^D,,7/8|z15/32|^A,,,15/16|
z15/32|^D,,/2-|^D,,/2-|^D,,7/8|
z15/32|^A,,,/2-|^A,,,/2-|^A,,,7/8|
z15/32|D,,/2-|D,,/2-|D,,7/8|
z15/32|^D,,/2-|^D,,/2-|^D,,7/8|
z15/32|^A,,,/2-|^A,,,/2-|^A,,,7/8|
z15/32|^D,,/2-|^D,,/2-|^D,,7/8|
z15/32|^G,,,/2-|^G,,,/2-|^G,,,7/8|
z15/32|^D,,/2-|^D,,/2-|^D,,7/8|
z15/32|F,,/2-|F,,/2-|F,,7/8|
z15/32|^D,,/2-|^D,,/2-|^D,,7/8|
z15/32|^G,,,/2-|^G,,,/2-|^G,,,7/8|
z15/32|A,,,/2-|A,,,/2-|A,,,7/8|
z15/32|^A,,,/2-|^A,,,/2-|^A,,,/2-|
^A,,,/2-|^A,,,/2-|^A,,,/2-|^A,,,3/4|
z15/32|^A,,,/2-|^A,,,/2-|^A,,,/2-|
^A,,,/2-|^A,,,7/8|z15/32|^D,,15/16|
z15/32|[^A,,,-]/2|[^A,,,-]/2|[^A,,,]31/32|
z15/32|[F,-D,-^A,,,-]/2|[F,-D,-^A,,,-]/2|[F,D,^A,,,]3/4|
z/4[F,D,]3/16|D,,/2-|D,,/2-|D,,7/8|
z15/32|^D,,/2-|^D,,/2-|^D,,7/8|
z15/32|[^A,,,-]/2|[^A,,,-]/2|[^A,,,]31/32|
z15/32|[F,-D,-^A,,,-]/2|[F,-D,-^A,,,-]/2|[F,D,^A,,,]3/4|
z/4[F,D,]3/16|G,,,/2-|G,,,/2-|G,,,7/8|
z15/32|^G,,,15/16|z15/32|^A,,,15/16|
z15/32|[C,,-]/2|[C,,-]/2|[C,,]31/32|
z15/32|[G,-C,,-]/2|[G,-C,,-]/2|[G,C,,]3/4|
z/4[G,]3/16|F,,,/2-|F,,,/2-|F,,,/2-|
F,,,/2-|F,,,/2-|F,,,/2-|F,,,3/4|
z15/32|[^A,,,-]/2|[^A,,,-]/2|[^A,,,]31/32|
z15/32|[F,-^A,,,-]/2|[F,-^A,,,-]/2|[F,^A,,,]3/4|
z/4[F,]3/16|G,,,/2-|G,,,/2-|G,,,7/8|
z15/32|[^A,,-G,,-]/2|[^A,,-G,,-]/2|[^A,,G,,]7/8|
z15/32|[^G,,C,]3/4|z/4[^G,,-]7/32|[^G,,D,]3/4|
z/4|^D,/2-|^D,/2-|^D,7/8|
z15/32|^G,,,/2-|^G,,,/2-|^G,,,/2-|
^G,,,/2-|^G,,,7/8|z15/32|^D,,15/16|
z15/32|^A,,,/2-|^A,,,/2-|^A,,,7/8|
z15/32|^D,,/2-|^D,,/2-|^D,,7/8|
z15/32|[^G,,,-]/2|[^G,,,-]/2|[^G,,,]31/32|
z15/32|[D,-F,-^A,-^G,,,-]/2|[D,-F,-^A,-^G,,,-]/2|[D,F,^A,^G,,,]3/4|
z/4[D,F,^A,]3/16|G,,,/2-|G,,,/2-|G,,,7/8|
z15/32|^G,,,/2-|^G,,,/2-|^G,,,7/8|
z15/32|^A,,,/2-|^A,,,/2-|^A,,,7/8|
z15/32|^A,,,/2-|^A,,,/2-|^A,,,7/8|
z15/32|^D,,/2-|^D,,/2-|^D,,/2-|
^D,,/2-|^D,,/2-|^D,,/2-|^D,,3/4|
z15/32|G,,,/2-|G,,,/2-|G,,,7/8|
z15/32|[^A,,-G,,-]/2|[^A,,-G,,-]/2|[^A,,G,,]7/8|
z15/32|[^G,,C,]3/4|z/4[^G,,-]7/32|[^G,,D,]3/4|
z/4|^D,/2-|^D,/2-|^D,7/8|
z15/32|^G,,,/2-|^G,,,/2-|^G,,,/2-|
^G,,,/2-|^G,,,7/8|z15/32|^D,,15/16|
z15/32|^A,,,/2-|^A,,,/2-|^A,,,7/8|
z15/32|^D,,/2-|^D,,/2-|^D,,7/8|
z15/32|[^G,,,-]/2|[^G,,,-]/2|[^G,,,]31/32|
z15/32|[D,-F,-^A,-^G,,,-]/2|[D,-F,-^A,-^G,,,-]/2|[D,F,^A,^G,,,]3/4|
z/4[D,F,^A,]3/16|G,,,/2-|G,,,/2-|G,,,7/8|
z15/32|^G,,,/2-|^G,,,/2-|^G,,,7/8|
z15/32|^A,,,/2-|^A,,,/2-|^A,,,7/8|
z15/32|^A,,,/2-|^A,,,/2-|^A,,,7/8|
z15/32|^D,,/2-|^D,,/2-|^D,,/2-|
^D,,/2-|^D,,/2-|^D,,/2-|^D,,3/4|
z/4


